X: 26845
T: Mimi And The New Generation
R: polka
M: 2/4
K: Amixolydian
AB|:cA AB|cd e>d|ea e/f/e/d/|ce g>f|
eA AB|cd ef/g/|ad e/f/e/d/|1 cA AB:|2 cA Af/g/||
|:af g/f/e|fd e>d|cA AB|cd ef/g/|
af g/f/e|fd e>d|ea e/f/e/d/|1 cA Af/g/:|2 cA AB||

